!!!OTL: SCHLAUF MAN WAWERL
!!!ARE: Europa, Mitteleuropa, Deutschland, Boehmen
!!!SCT: K0032
!!!YEM: Copyright 1995, estate of Helmut Schaffrath.
**kern
*ICvox
*Ivox
*M4/4
*k[f#]
*G:
=1
{4dd
4dd
4b
4g
=2
4cc
4cc
4a
4r}
=3
{4ee
4ee
4dd
4cc
=4
4dd
4dd
4b
4r}
=5
{4dd
4dd
4b
4g
=6
4cc
4cc
4a
4r}
=7
{4ee
4ee
4dd
4cc
=8
4dd
4dd
4b
4r}
=9
{4.b
8a
4a
4ee
=10
4.ee
8dd
4g}
{4dd
=11
4.dd
8cc
4f#
4cc
=12
2.b
4r}
=13
{4.b
8a
4a
4ee
=14
4.ee
8dd
4g}
{4dd
=15
4.dd
8cc
4f#
4cc
=16
2.b
4r}
==
!!!AGN: Kinder -, Wiegen - Lied
!!!ONB: ESAC (Essen Associative Code) Database: KINDER
!!!AMT: simple quadruple
!!!AIN: vox
!!!EED: Helmut Schaffrath
!!!EEV: 1.0
*-
